;FLAVOR:Marlin
;TIME:25
;Filament used: 0.0283397m
;Layer height: 0.2
;Generated with Cura_SteamEngine 3.6.0
M140 S60
M105
M190 S60
M104 S195
M105
M109 S195
M82 ;absolute extrusion mode
G21 ;metric values
G90 ;absolute positioning
M82 ;set extruder to absolute mode
M107 ;start with the fan off
G28 X0 Y0 ;move X/Y to min endstops
G28 Z0 ;move Z to min endstops
G1 Z15.0 F100 ;move the platform down 15mm
G92 E0 ;zero the extruded length
G1 F200 E3 ;extrude 3mm of feed stock
G92 E0 ;zero the extruded length again
G1 F100
M117 Printing...
G5
G92 E0
G1 F2400 E-6
;LAYER_COUNT:2
;LAYER:0
M106 S255
M204 S3000
M205 X10 Y10
G0 F3000 X97.03 Y97.194 Z0.2
M204 S1800
M205 X8 Y8
;TYPE:SKIRT
G1 F2400 E0
G1 X97.194 Y97.03 E0.0108
G1 X97.631 Y96.65 E0.03777
G1 X98.116 Y96.333 E0.06475
G1 X98.64 Y96.086 E0.09172
G1 X99.193 Y95.914 E0.11869
G1 X99.765 Y95.819 E0.14569
G1 X100.164 Y95.8 E0.16429
G1 X109.836 Y95.8 E0.61466
G1 X110.414 Y95.84 E0.64163
G1 X110.981 Y95.959 E0.66861
G1 X111.526 Y96.155 E0.69558
G1 X112.039 Y96.424 E0.72255
G1 X112.51 Y96.761 E0.74952
G1 X112.806 Y97.03 E0.76814
G1 X112.97 Y97.194 E0.77894
G1 X113.35 Y97.631 E0.80591
G1 X113.667 Y98.116 E0.83289
G1 X113.914 Y98.64 E0.85986
G1 X114.086 Y99.193 E0.88683
G1 X114.181 Y99.765 E0.91383
G1 X114.2 Y100.164 E0.93243
G1 X114.2 Y109.836 E1.3828
G1 X114.16 Y110.414 E1.40978
G1 X114.041 Y110.981 E1.43675
G1 X113.845 Y111.526 E1.46372
G1 X113.576 Y112.039 E1.49069
G1 X113.239 Y112.51 E1.51766
G1 X112.97 Y112.806 E1.53629
G1 X112.806 Y112.97 E1.54709
G1 X112.369 Y113.35 E1.57405
G1 X111.884 Y113.667 E1.60103
G1 X111.36 Y113.914 E1.62801
G1 X110.807 Y114.086 E1.65497
G1 X110.235 Y114.181 E1.68197
G1 X109.836 Y114.2 E1.70057
G1 X100.164 Y114.2 E2.15094
G1 X99.586 Y114.16 E2.17792
G1 X99.019 Y114.041 E2.2049
G1 X98.474 Y113.845 E2.23187
G1 X97.961 Y113.576 E2.25884
G1 X97.49 Y113.239 E2.28581
G1 X97.194 Y112.97 E2.30443
G1 X97.03 Y112.806 E2.31523
G1 X96.65 Y112.369 E2.3422
G1 X96.333 Y111.884 E2.36918
G1 X96.086 Y111.36 E2.39615
G1 X95.914 Y110.807 E2.42312
G1 X95.819 Y110.235 E2.45012
G1 X95.8 Y109.836 E2.46872
G1 X95.8 Y100.164 E2.91909
G1 X95.84 Y99.586 E2.94606
G1 X95.959 Y99.019 E2.97304
G1 X96.155 Y98.474 E3.00001
G1 X96.424 Y97.961 E3.02698
G1 X96.761 Y97.49 E3.05395
G1 X97.03 Y97.194 E3.07257
M204 S3000
M205 X10 Y10
G0 F3000 X97.426 Y97.59
M204 S1800
M205 X8 Y8
G1 F2400 X97.59 Y97.426 E3.08337
G1 X97.999 Y97.074 E3.1085
G1 X98.455 Y96.786 E3.13361
G1 X98.948 Y96.569 E3.1587
G1 X99.468 Y96.427 E3.1838
G1 X100.164 Y96.36 E3.21635
G1 X109.836 Y96.36 E3.66672
G1 X110.374 Y96.4 E3.69184
G1 X110.9 Y96.519 E3.71695
G1 X111.402 Y96.714 E3.74203
G1 X111.871 Y96.982 E3.76718
G1 X112.41 Y97.426 E3.7997
G1 X112.574 Y97.59 E3.8105
G1 X112.926 Y97.999 E3.83563
G1 X113.214 Y98.455 E3.86074
G1 X113.431 Y98.948 E3.88582
G1 X113.573 Y99.468 E3.91092
G1 X113.64 Y100.164 E3.94348
G1 X113.64 Y109.836 E4.39385
G1 X113.6 Y110.374 E4.41897
G1 X113.481 Y110.9 E4.44408
G1 X113.286 Y111.402 E4.46916
G1 X113.018 Y111.871 E4.49431
G1 X112.574 Y112.41 E4.52683
G1 X112.41 Y112.574 E4.53763
G1 X112.001 Y112.926 E4.56276
G1 X111.545 Y113.214 E4.58787
G1 X111.052 Y113.431 E4.61295
G1 X110.532 Y113.573 E4.63805
G1 X109.836 Y113.64 E4.67061
G1 X100.164 Y113.64 E5.12098
G1 X99.626 Y113.6 E5.1461
G1 X99.1 Y113.481 E5.17121
G1 X98.598 Y113.286 E5.19629
G1 X98.129 Y113.018 E5.22144
G1 X97.59 Y112.574 E5.25396
G1 X97.426 Y112.41 E5.26476
G1 X97.074 Y112.001 E5.28988
G1 X96.786 Y111.545 E5.315
G1 X96.569 Y111.052 E5.34008
G1 X96.427 Y110.532 E5.36518
G1 X96.36 Y109.836 E5.39774
G1 X96.36 Y100.164 E5.84811
G1 X96.4 Y99.626 E5.87323
G1 X96.519 Y99.1 E5.89834
G1 X96.714 Y98.598 E5.92341
G1 X96.982 Y98.129 E5.94857
G1 X97.426 Y97.59 E5.98108
M204 S3000
M205 X10 Y10
G0 F3000 X97.822 Y97.986
M204 S1800
M205 X8 Y8
G1 F2400 X97.986 Y97.822 E5.99188
G1 X98.364 Y97.501 E6.01498
G1 X98.788 Y97.244 E6.03806
G1 X99.249 Y97.059 E6.06119
G1 X99.732 Y96.95 E6.08425
G1 X100.164 Y96.92 E6.10441
G1 X109.836 Y96.92 E6.55478
G1 X110.33 Y96.96 E6.57786
G1 X110.812 Y97.079 E6.60098
G1 X111.268 Y97.273 E6.62405
G1 X111.687 Y97.538 E6.64714
G1 X112.014 Y97.822 E6.6673
G1 X112.178 Y97.986 E6.6781
G1 X112.499 Y98.364 E6.7012
G1 X112.756 Y98.788 E6.72428
G1 X112.941 Y99.249 E6.74741
G1 X113.05 Y99.732 E6.77047
G1 X113.08 Y100.164 E6.79063
G1 X113.08 Y109.836 E7.241
G1 X113.04 Y110.33 E7.26408
G1 X112.921 Y110.812 E7.2872
G1 X112.727 Y111.268 E7.31027
G1 X112.462 Y111.687 E7.33336
G1 X112.178 Y112.014 E7.35353
G1 X112.014 Y112.178 E7.36433
G1 X111.636 Y112.499 E7.38742
G1 X111.212 Y112.756 E7.4105
G1 X110.751 Y112.941 E7.43363
G1 X110.268 Y113.05 E7.45669
G1 X109.836 Y113.08 E7.47685
G1 X100.164 Y113.08 E7.92722
G1 X99.67 Y113.04 E7.9503
G1 X99.188 Y112.921 E7.97342
G1 X98.732 Y112.727 E7.99649
G1 X98.313 Y112.462 E8.01958
G1 X97.986 Y112.178 E8.03975
G1 X97.822 Y112.014 E8.05055
G1 X97.501 Y111.636 E8.07364
G1 X97.244 Y111.212 E8.09672
G1 X97.059 Y110.751 E8.11985
G1 X96.95 Y110.268 E8.14291
G1 X96.92 Y109.836 E8.16307
G1 X96.92 Y100.164 E8.61344
G1 X96.96 Y99.67 E8.63652
G1 X97.079 Y99.188 E8.65964
G1 X97.273 Y98.732 E8.68271
G1 X97.538 Y98.313 E8.7058
G1 X97.822 Y97.986 E8.72597
M204 S3000
M205 X10 Y10
G0 F3000 X98.218 Y98.382
M204 S1800
M205 X8 Y8
G1 F2400 X98.382 Y98.218 E8.73677
G1 X98.726 Y97.93 E8.75766
G1 X99.116 Y97.708 E8.77855
G1 X99.539 Y97.559 E8.79944
G1 X100.164 Y97.48 E8.82877
G1 X109.836 Y97.48 E9.27914
G1 X110.283 Y97.52 E9.30004
G1 X110.715 Y97.638 E9.32089
G1 X111.12 Y97.832 E9.3418
G1 X111.618 Y98.218 E9.37114
G1 X111.782 Y98.382 E9.38194
G1 X112.07 Y98.726 E9.40283
G1 X112.292 Y99.116 E9.42372
G1 X112.441 Y99.539 E9.44461
G1 X112.52 Y100.164 E9.47394
G1 X112.52 Y109.836 E9.92431
G1 X112.48 Y110.283 E9.94521
G1 X112.362 Y110.715 E9.96606
G1 X112.168 Y111.12 E9.98697
G1 X111.782 Y111.618 E10.01631
G1 X111.618 Y111.782 E10.02711
G1 X111.274 Y112.07 E10.048
G1 X110.884 Y112.292 E10.0689
G1 X110.461 Y112.441 E10.08978
G1 X109.836 Y112.52 E10.11911
G1 X100.164 Y112.52 E10.56948
G1 X99.717 Y112.48 E10.59038
G1 X99.285 Y112.362 E10.61123
G1 X98.88 Y112.168 E10.63214
G1 X98.382 Y111.782 E10.66148
G1 X98.218 Y111.618 E10.67228
G1 X97.93 Y111.274 E10.69317
G1 X97.708 Y110.884 E10.71407
G1 X97.559 Y110.461 E10.73495
G1 X97.48 Y109.836 E10.76429
G1 X97.48 Y100.164 E11.21465
G1 X97.52 Y99.717 E11.23555
G1 X97.638 Y99.285 E11.2564
G1 X97.832 Y98.88 E11.27732
G1 X98.218 Y98.382 E11.30665
M204 S3000
M205 X10 Y10
G0 F3000 X98.614 Y98.778
M204 S1800
M205 X8 Y8
G1 F2400 X98.778 Y98.614 E11.31745
G1 X99.084 Y98.364 E11.33585
G1 X99.435 Y98.181 E11.35429
G1 X99.815 Y98.071 E11.37271
G1 X100.164 Y98.04 E11.38902
G1 X109.836 Y98.04 E11.83939
G1 X110.229 Y98.08 E11.85778
G1 X110.607 Y98.198 E11.87622
G1 X110.953 Y98.389 E11.89463
G1 X111.222 Y98.614 E11.91096
G1 X111.386 Y98.778 E11.92176
G1 X111.636 Y99.084 E11.94015
G1 X111.819 Y99.435 E11.95859
G1 X111.929 Y99.815 E11.97701
G1 X111.96 Y100.164 E11.99332
G1 X111.96 Y109.836 E12.44369
G1 X111.92 Y110.229 E12.46209
G1 X111.802 Y110.607 E12.48052
G1 X111.611 Y110.953 E12.49893
G1 X111.386 Y111.222 E12.51526
G1 X111.222 Y111.386 E12.52606
G1 X110.916 Y111.636 E12.54446
G1 X110.565 Y111.819 E12.56289
G1 X110.185 Y111.929 E12.58131
G1 X109.836 Y111.96 E12.59762
G1 X100.164 Y111.96 E13.04799
G1 X99.771 Y111.92 E13.06639
G1 X99.393 Y111.802 E13.08483
G1 X99.047 Y111.611 E13.10323
G1 X98.778 Y111.386 E13.11956
G1 X98.614 Y111.222 E13.13036
G1 X98.364 Y110.916 E13.14876
G1 X98.181 Y110.565 E13.16719
G1 X98.071 Y110.185 E13.18561
G1 X98.04 Y109.836 E13.20193
G1 X98.04 Y100.164 E13.65229
G1 X98.08 Y99.771 E13.67069
G1 X98.198 Y99.393 E13.68913
G1 X98.389 Y99.047 E13.70753
G1 X98.614 Y98.778 E13.72386
M204 S3000
M205 X10 Y10
G0 F3000 X99.01 Y99.174
M204 S1800
M205 X8 Y8
G1 F2400 X99.174 Y99.01 E13.73466
G1 X99.437 Y98.804 E13.75022
G1 X99.741 Y98.665 E13.76578
G1 X100.164 Y98.6 E13.78571
G1 X109.836 Y98.6 E14.23608
G1 X110.168 Y98.64 E14.25165
G1 X110.48 Y98.757 E14.26717
G1 X110.826 Y99.01 E14.28712
G1 X110.99 Y99.174 E14.29792
G1 X111.196 Y99.437 E14.31348
G1 X111.335 Y99.741 E14.32904
G1 X111.4 Y100.164 E14.34897
G1 X111.4 Y109.836 E14.79934
G1 X111.36 Y110.168 E14.81491
G1 X111.243 Y110.48 E14.83043
G1 X110.99 Y110.826 E14.85039
G1 X110.826 Y110.99 E14.86119
G1 X110.563 Y111.196 E14.87674
G1 X110.259 Y111.335 E14.89231
G1 X109.836 Y111.4 E14.91224
G1 X100.164 Y111.4 E15.3626
G1 X99.832 Y111.36 E15.37818
G1 X99.52 Y111.243 E15.39369
G1 X99.174 Y110.99 E15.41365
G1 X99.01 Y110.826 E15.42445
G1 X98.804 Y110.563 E15.44001
G1 X98.665 Y110.259 E15.45557
G1 X98.6 Y109.836 E15.4755
G1 X98.6 Y100.164 E15.92587
G1 X98.64 Y99.832 E15.94144
G1 X98.757 Y99.52 E15.95695
G1 X99.01 Y99.174 E15.97691
M204 S3000
M205 X10 Y10
G0 F3000 X99.406 Y99.57
M204 S1800
M205 X8 Y8
G1 F2400 X99.57 Y99.406 E15.98771
G1 X99.779 Y99.254 E15.99975
G1 X100.024 Y99.172 E16.01178
G1 X100.164 Y99.16 E16.01832
G1 X109.836 Y99.16 E16.46869
G1 X110.091 Y99.2 E16.48071
G1 X110.323 Y99.315 E16.49276
G1 X110.43 Y99.406 E16.49931
G1 X110.594 Y99.57 E16.51011
G1 X110.746 Y99.779 E16.52214
G1 X110.828 Y100.024 E16.53417
G1 X110.84 Y100.164 E16.54071
G1 X110.84 Y109.836 E16.99108
G1 X110.8 Y110.091 E17.0031
G1 X110.685 Y110.323 E17.01516
G1 X110.594 Y110.43 E17.0217
G1 X110.43 Y110.594 E17.0325
G1 X110.221 Y110.746 E17.04453
G1 X109.976 Y110.828 E17.05656
G1 X109.836 Y110.84 E17.0631
G1 X100.164 Y110.84 E17.51347
G1 X99.909 Y110.8 E17.52549
G1 X99.677 Y110.685 E17.53755
G1 X99.57 Y110.594 E17.54409
G1 X99.406 Y110.43 E17.55489
G1 X99.254 Y110.221 E17.56692
G1 X99.172 Y109.976 E17.57895
G1 X99.16 Y109.836 E17.5855
G1 X99.16 Y100.164 E18.03586
G1 X99.2 Y99.909 E18.04788
G1 X99.315 Y99.677 E18.05994
G1 X99.406 Y99.57 E18.06648
M204 S3000
M205 X10 Y10
G0 F3000 X99.802 Y99.966
M204 S1800
M205 X8 Y8
G1 F2400 X99.966 Y99.802 E18.07728
G1 X100.164 Y99.72 E18.08726
G1 X109.836 Y99.72 E18.53763
G1 X110.034 Y99.802 E18.54761
G1 X110.198 Y99.966 E18.55841
G1 X110.28 Y100.164 E18.56839
G1 X110.28 Y109.836 E19.01876
G1 X110.198 Y110.034 E19.02873
G1 X110.034 Y110.198 E19.03953
G1 X109.836 Y110.28 E19.04951
G1 X100.164 Y110.28 E19.49988
G1 X99.966 Y110.198 E19.50986
G1 X99.802 Y110.034 E19.52066
G1 X99.72 Y109.836 E19.53064
G1 X99.72 Y100.164 E19.98101
G1 X99.802 Y99.966 E19.99099
M204 S3000
M205 X10 Y10
G1 F2400 E13.99099
;MESH:cube.stl
G0 F3000 X100.854 Y100.854
G0 X109.09 Y109.09
G0 X109.72 Y109.72
M204 S1800
M205 X8 Y8
;TYPE:WALL-OUTER
G1 F2400 E19.99099
G1 X100.28 Y109.72 E20.43055
G1 X100.28 Y100.28 E20.87012
G1 X109.72 Y100.28 E21.30969
G1 X109.72 Y109.72 E21.74925
M204 S3000
M205 X10 Y10
G0 F3000 X109.52 Y109.72
G0 X109.16 Y109.16
M204 S1800
M205 X8 Y8
;TYPE:WALL-INNER
G1 F2400 X100.84 Y109.16 E22.13667
G1 X100.84 Y100.84 E22.52408
G1 X109.16 Y100.84 E22.91149
G1 X109.16 Y109.16 E23.29891
M204 S3000
M205 X10 Y10
G0 F3000 X108.6 Y108.6
M204 S1800
M205 X8 Y8
G1 F2400 X101.4 Y108.6 E23.63417
G1 X101.4 Y101.4 E23.96943
G1 X108.6 Y101.4 E24.30469
G1 X108.6 Y108.6 E24.63996
M204 S3000
M205 X10 Y10
G0 F3000 X108.04 Y108.04
M204 S1800
M205 X8 Y8
G1 F2400 X101.96 Y108.04 E24.92307
G1 X101.96 Y101.96 E25.20618
G1 X108.04 Y101.96 E25.48929
G1 X108.04 Y108.04 E25.7724
M204 S3000
M205 X10 Y10
G0 F3000 X107.48 Y107.48
M204 S1800
M205 X8 Y8
G1 F2400 X102.52 Y107.48 E26.00336
G1 X102.52 Y102.52 E26.23431
G1 X107.48 Y102.52 E26.46527
G1 X107.48 Y107.48 E26.69623
M204 S3000
M205 X10 Y10
G0 F3000 X106.92 Y106.92
M204 S1800
M205 X8 Y8
G1 F2400 X103.08 Y106.92 E26.87504
G1 X103.08 Y103.08 E27.05384
G1 X106.92 Y103.08 E27.23265
G1 X106.92 Y106.92 E27.41146
M204 S3000
M205 X10 Y10
G0 F3000 X106.37 Y106.37
M204 S1800
M205 X8 Y8
;TYPE:SKIN
G1 F2400 X103.63 Y106.37 E27.53904
G1 X103.63 Y103.63 E27.66663
G1 X106.37 Y103.63 E27.79422
G1 X106.37 Y106.37 E27.9218
M204 S3000
M205 X10 Y10
G0 F3000 X106.109 Y104.525
M204 S1800
M205 X8 Y8
G1 F2400 X105.474 Y103.89 E27.96362
M204 S3000
M205 X10 Y10
G0 F3000 X104.682 Y103.89
M204 S1800
M205 X8 Y8
G1 F2400 X106.109 Y105.317 E28.05759
M204 S3000
M205 X10 Y10
G0 F3000 X106.109 Y106.109
M204 S1800
M205 X8 Y8
G1 F2400 X103.889 Y103.889 E28.20378
M204 S3000
M205 X10 Y10
G0 F3000 X103.889 Y104.681
M204 S1800
M205 X8 Y8
G1 F2400 X105.317 Y106.109 E28.29781
M204 S3000
M205 X10 Y10
G0 F3000 X104.525 Y106.109
M204 S1800
M205 X8 Y8
G1 F2400 X103.889 Y105.473 E28.3397
;TIME_ELAPSED:25.478325
G1 F2400 E22.3397
M140 S0
M204 S4000
M205 X20 Y20
M107
M104 S0 ; turn off extruder
M140 S0 ; turn off bed
M84 ; disable motors
M107
G91 ;relative positioning
G1 E-1 F300 ;retract the filament a bit before lifting the nozzle
to release some of the pressure
G1 Z+0.5 E-5 ;X-20 Y-20 F100 ;move Z up a bit and retract filament even more
G28 X0 ;Y0 ;move X/Y to min endstops
so the head is out of the way
G1 Y180 F2000
M84 ;steppers off
G90
M300 P300 S4000
M82 ;absolute extrusion mode
M104 S0
;End of Gcode
;SETTING_3 {"global_quality": "[general]\\nversion = 4\\nname = Fine #2\\ndefini
;SETTING_3 tion = anycubic_i3_mega\\n\\n[metadata]\\nquality_type = normal\\ntyp
;SETTING_3 e = quality_changes\\nsetting_version = 5\\n\\n[values]\\nadhesion_ty
;SETTING_3 pe = brim\\nlayer_height = 0.2\\nmaterial_bed_temperature = 60\\nsupp
;SETTING_3 ort_enable = True\\nsupport_type = everywhere\\n\\n", "extruder_quali
;SETTING_3 ty": ["[general]\\nversion = 4\\nname = Fine #2\\ndefinition = anycub
;SETTING_3 ic_i3_mega\\n\\n[metadata]\\nquality_type = normal\\ntype = quality_c
;SETTING_3 hanges\\nposition = 0\\nsetting_version = 5\\n\\n[values]\\ngradual_i
;SETTING_3 nfill_steps = 0\\ninfill_pattern = grid\\ninfill_sparse_density = 10\
;SETTING_3 \nmaterial_print_temperature = 195\\nretraction_hop = 0.1\\nspeed_pri
;SETTING_3 nt = 80\\nsupport_angle = 55\\nsupport_infill_rate = 10\\nwall_thickn
;SETTING_3 ess = 2.5\\n\\n"]}
